flaticon/hand-gestures/zoom-in-1.svg

<svg xmlns="http://www.w3.org/2000/svg" width="32" height="32" viewBox="0 0 24 24">
    <path d="M5.398438 2.800781L7.398438 2.800781C7.640625 2.800781 7.800781 2.640625 7.800781 2.398438 7.800781 2.160156 7.640625 2 7.398438 2L6.359375 2 7.679688.679688C7.839844.519531 7.839844.28125 7.679688.121094 7.519531-.0390625 7.28125-.0390625 7.121094.121094L5.800781 1.441406 5.800781.398438C5.800781.160156 5.640625 0 5.398438 0 5.160156 0 5 .160156 5 .398438L5 2.398438C5 2.640625 5.160156 2.800781 5.398438 2.800781zM3.398438 6C3.398438 6.238281 3.558594 6.398438 3.800781 6.398438 4.039062 6.398438 4.199219 6.238281 4.199219 6L4.199219 4C4.199219 3.761719 4.039062 3.601562 3.800781 3.601562L1.800781 3.601562C1.558594 3.601562 1.398438 3.761719 1.398438 4 1.398438 4.238281 1.558594 4.398438 1.800781 4.398438L2.839844 4.398438 1.519531 5.71875C1.359375 5.878906 1.359375 6.121094 1.519531 6.28125 1.601562 6.359375 1.679688 6.398438 1.800781 6.398438 1.921875 6.398438 2 6.359375 2.078125 6.28125L3.398438 4.960938zM20.601562 8.398438C20.160156 8.398438 19.71875 8.558594 19.398438 8.800781L19.398438 8.398438C19.398438 7.28125 18.519531 6.398438 17.398438 6.398438 16.960938 6.398438 16.519531 6.558594 16.199219 6.800781L16.199219 2C16.199219.878906 15.320312 0 14.199219 0 13.078125 0 12.199219.878906 12.199219 2 11.878906 1.761719 11.441406 1.601562 11 1.601562 9.878906 1.601562 9 2.480469 9 3.601562L9 11.078125C8.121094 9.558594 6.078125 8.800781 4.519531 9.359375 4.320312 9.398438 4.160156 9.519531 3.960938 9.640625 3.359375 10.039062 3.398438 10.558594 3.398438 10.71875 3.359375 10.960938 3.398438 11 3.960938 11.640625 4.640625 12.441406 6.121094 14.121094 7.039062 15.800781 7.121094 15.878906 8.199219 17.640625 9.398438 18.960938L9.398438 20C9.398438 22.199219 11.199219 24 13.398438 24L17.398438 24C19.121094 24 20.921875 22.558594 21.320312 20.878906 21.441406 20.398438 21.558594 20.039062 21.71875 19.878906 22.121094 19.398438 22.601562 18.28125 22.601562 16.800781L22.601562 10.398438C22.601562 9.28125 21.71875 8.398438 20.601562 8.398438zM17.441406 23.199219L13.441406 23.199219C11.679688 23.199219 10.238281 21.761719 10.238281 20L10.238281 19.636719C10.316406 19.695312 10.398438 19.75 10.480469 19.800781 10.71875 20 10.921875 20.121094 11.160156 20.320312 11.320312 20.480469 11.640625 20.359375 11.679688 20.238281 11.839844 20.078125 11.800781 19.839844 11.640625 19.679688 11.398438 19.441406 11.160156 19.28125 10.921875 19.121094 10.644531 18.921875 10.367188 18.722656 10.089844 18.488281 8.898438 17.246094 7.761719 15.398438 7.761719 15.398438 6.800781 13.679688 5.28125 11.960938 4.558594 11.121094 4.441406 10.960938 4.28125 10.761719 4.199219 10.679688 4.199219 10.558594 4.199219 10.480469 4.480469 10.320312 4.640625 10.238281 4.761719 10.160156 4.878906 10.121094 5.921875 9.761719 7.640625 10.238281 8.398438 11.558594L9.019531 12.488281C9.023438 12.511719 9.03125 12.535156 9.039062 12.558594L9.441406 13.359375C9.519531 13.519531 9.917969 13.601562 9.960938 13.519531 10.121094 13.441406 10.199219 13.199219 10.121094 13L9.835938 12.433594C9.839844 12.421875 9.839844 12.410156 9.839844 12.398438L9.839844 3.601562C9.839844 2.921875 10.359375 2.398438 11.039062 2.398438 11.71875 2.398438 12.238281 2.921875 12.238281 3.601562L12.238281 8.398438C12.238281 8.421875 12.242188 8.441406 12.242188 8.460938 12.242188 8.480469 12.238281 8.5 12.238281 8.519531L12.238281 13.199219C12.238281 13.441406 12.398438 13.601562 12.640625 13.601562 12.878906 13.601562 13.039062 13.441406 13.039062 13.199219L13.039062 8.519531C13.039062 8.5 13.039062 8.480469 13.035156 8.460938 13.039062 8.441406 13.039062 8.421875 13.039062 8.398438L13.039062 2C13.039062 1.320312 13.558594.800781 14.238281.800781 14.917969.800781 15.441406 1.320312 15.441406 2L15.441406 12.800781C15.441406 13.039062 15.601562 13.199219 15.839844 13.199219 16.078125 13.199219 16.238281 13.039062 16.238281 12.800781L16.238281 8.398438C16.238281 7.71875 16.757812 7.199219 17.441406 7.199219 18.121094 7.199219 18.640625 7.71875 18.640625 8.398438L18.640625 13.199219C18.640625 13.441406 18.800781 13.601562 19.039062 13.601562 19.28125 13.601562 19.441406 13.441406 19.441406 13.199219L19.441406 10.398438C19.441406 9.71875 19.960938 9.199219 20.640625 9.199219 21.320312 9.199219 21.839844 9.71875 21.839844 10.398438L21.839844 16.800781C21.839844 17.738281 21.609375 18.449219 21.390625 18.890625 21.363281 18.910156 21.339844 18.933594 21.320312 18.960938 21.121094 19.238281 20.757812 19.359375 19.960938 19.558594L19.679688 19.640625C19.480469 19.679688 19.359375 19.921875 19.398438 20.121094 19.480469 20.28125 19.640625 20.398438 19.800781 20.398438 19.839844 20.398438 19.878906 20.398438 19.917969 20.398438L20.121094 20.359375C20.320312 20.300781 20.507812 20.25 20.683594 20.195312 20.636719 20.347656 20.59375 20.507812 20.558594 20.679688 20.28125 22.039062 18.800781 23.199219 17.441406 23.199219zM17.441406 23.199219"/>
</svg>

<svg xmlns="http://www.w3.org/2000/svg" width="32" height="32" viewBox="0 0 24 24">
    <path d="M5.398 2.8h2c.243 0 .403-.16.403-.402C7.8 2.16 7.64 2 7.398 2H6.36L7.68.68a.385.385 0 0 0 0-.559.385.385 0 0 0-.558 0l-1.32 1.32V.398C5.8.16 5.64 0 5.398 0 5.16 0 5 .16 5 .398v2c0 .243.16.403.398.403zm0 0M3.398 6c0 .238.16.398.403.398.238 0 .398-.16.398-.398V4c0-.238-.16-.398-.398-.398h-2c-.242 0-.403.16-.403.398 0 .238.16.398.403.398H2.84l-1.32 1.32a.39.39 0 0 0 0 .563c.082.078.16.117.28.117.122 0 .2-.039.278-.117l1.32-1.32zm0 0M20.602 8.398c-.442 0-.883.16-1.204.403v-.403c0-1.117-.878-2-2-2-.437 0-.878.16-1.199.403V2c0-1.121-.879-2-2-2-1.12 0-2 .879-2 2A2.062 2.062 0 0 0 11 1.602c-1.121 0-2 .878-2 2v7.476c-.879-1.52-2.922-2.277-4.48-1.719-.2.04-.36.16-.56.282-.6.398-.562.918-.562 1.078-.039.242 0 .281.563.922.68.8 2.16 2.48 3.078 4.16.082.078 1.16 1.84 2.36 3.16V20c0 2.2 1.8 4 4 4h4c1.722 0 3.523-1.441 3.921-3.121.121-.48.239-.84.399-1 .402-.48.883-1.598.883-3.078v-6.403c0-1.117-.883-2-2-2zM17.442 23.2h-4A3.21 3.21 0 0 1 10.237 20v-.363c.078.058.16.113.242.164.239.199.442.32.68.52.16.16.48.038.52-.083.16-.16.12-.398-.04-.558-.242-.239-.48-.399-.718-.559a13.02 13.02 0 0 1-.832-.633c-1.192-1.242-2.328-3.09-2.328-3.09-.961-1.718-2.48-3.437-3.203-4.277a4.841 4.841 0 0 0-.36-.441c0-.121 0-.2.281-.36.16-.082.282-.16.399-.199 1.043-.36 2.762.117 3.52 1.438l.62.93c.004.023.012.046.02.07l.402.8c.079.16.477.243.52.16.16-.078.238-.32.16-.519l-.285-.566c.004-.012.004-.024.004-.036V3.602c0-.68.52-1.204 1.2-1.204.679 0 1.198.524 1.198 1.204v4.796c0 .024.004.043.004.063 0 .02-.004.039-.004.059v4.68c0 .241.16.402.403.402.238 0 .398-.16.398-.403V8.52c0-.019 0-.039-.004-.058.004-.02.004-.04.004-.063V2c0-.68.52-1.2 1.2-1.2.679 0 1.202.52 1.202 1.2v10.8c0 .24.16.4.399.4.238 0 .398-.16.398-.4V8.399c0-.68.52-1.199 1.203-1.199.68 0 1.2.52 1.2 1.2v4.8c0 .242.16.403.398.403.242 0 .402-.16.402-.403v-2.8c0-.68.52-1.2 1.2-1.2.68 0 1.199.52 1.199 1.2V16.8c0 .937-.23 1.648-.45 2.09a.3.3 0 0 0-.07.07c-.199.277-.562.398-1.36.598l-.28.082c-.2.039-.32.28-.282.48.082.16.243.277.403.277h.117l.203-.039c.2-.058.387-.109.563-.164a5.14 5.14 0 0 0-.125.485c-.278 1.36-1.758 2.52-3.118 2.52zm0 0"/>
</svg>
